icon/cg/stack.svg

<svg width="24" height="24" fill="none" xmlns="http://www.w3.org/2000/svg"><path d="M20 4v12h2V2H8v2h12Z" fill="currentColor"/><path fill-rule="evenodd" clip-rule="evenodd" d="M2 8v14h14V8H2Zm12 2H4v10h10V10Z" fill="currentColor"/><path d="M17 7H5V5h14v14h-2V7Z" fill="currentColor"/></svg>

<svg viewBox="0 0 24 24" fill="none" xmlns="http://www.w3.org/2000/svg" height="1em" width="1em">
  <path d="M20 4V16H22V2H8V4H20Z" fill="currentColor"/>
  <path fill-rule="evenodd" clip-rule="evenodd" d="M2 8V22H16V8H2ZM14 10H4V20H14V10Z" fill="currentColor"/>
  <path d="M17 7H5V5H19V19H17V7Z" fill="currentColor"/>
</svg>
